modules/feathericon/icons/rage.svg

<?xml version="1.0" encoding="UTF-8"?>
<svg width="14px" height="14px" viewBox="0 0 14 14" version="1.1" xmlns="http://www.w3.org/2000/svg" xmlns:xlink="http://www.w3.org/1999/xlink">
    <!-- Generator: sketchtool 48.1 (47250) - http://www.bohemiancoding.com/sketch -->
    <title>rage</title>
    <desc>Created with sketchtool.</desc>
    <defs></defs>
    <g id="people" stroke="none" stroke-width="1" fill="none" fill-rule="evenodd">
        <g id="rage" fill="#000000">
            <path d="M7,13 C10.3137085,13 13,10.3137085 13,7 C13,3.6862915 10.3137085,1 7,1 C3.6862915,1 1,3.6862915 1,7 C1,10.3137085 3.6862915,13 7,13 Z M7,14 C3.13400675,14 0,10.8659932 0,7 C0,3.13400675 3.13400675,0 7,0 C10.8659932,0 14,3.13400675 14,7 C14,10.8659932 10.8659932,14 7,14 Z M7,8 C4.99707031,8 4.99707031,10 4.99707031,10 L6,10 C6,10 6,9 7,9 C8,9 8,10 8,10 L8.99743652,10 C8.99743652,10 9.00292969,8 7,8 Z M9,7 C8.44771525,7 8,6.55228475 8,6 C8,5.99835205 10,4.9967041 10,4.9967041 C10,4.9967041 10,5.44771525 10,6 C10,6.55228475 9.55228475,7 9,7 Z M5,7 C4.44771525,7 4,6.55228475 4,6 L4,5 L6,6 C6,6.55228475 5.55228475,7 5,7 Z" id="Shape"></path>
        </g>
    </g>
</svg>

<svg width="14" height="14" xmlns="http://www.w3.org/2000/svg"><path d="M7 13A6 6 0 1 0 7 1a6 6 0 0 0 0 12zm0 1A7 7 0 1 1 7 0a7 7 0 0 1 0 14zm0-6c-2.003 0-2.003 2-2.003 2H6s0-1 1-1 1 1 1 1h.997S9.003 8 7 8zm2-1a1 1 0 0 1-1-1c0-.002 2-1.003 2-1.003V6a1 1 0 0 1-1 1zM5 7a1 1 0 0 1-1-1V5l2 1a1 1 0 0 1-1 1z" fill="#000" fill-rule="evenodd"/></svg>
